X: 1
T: The Kail Pot
R: strathspey
M: 4/4
L: 1/8
K: Dmin
|: A|"Dm"D>EF>G A<Ad>e|"Dm"f>ed>f "A"g2 A>^c|"Gm"d>cB>A "Bb"B>AG>F|"Gm"(3EFG "A"(3AGA "Dm"F<D D :|
|: A|"Dm"d>^cd>e f>ed>e|"F"f>ef>a "C"g2 g>e|"F"f>ef>a "Gm"g>f"C"e>g|"A"(3fed (3^cde "Dm"d<D D :|
